assets/img/logo-braze-fa.svg

<svg fill="none" height="347" viewBox="0 0 738 347" width="738" xmlns="http://www.w3.org/2000/svg"><path d="m725.545 188.279c-3.599 0-6.728 1.859-9.719 3.69 0 0-5.233 3.08-7.476 4.384-12.488 7.185-25.447 11.541-39.319 10.403-7.809-.638-15.091-2.552-21.294-6.991-1.024-.749-1.993-1.581-3.073-2.469.526-.25.803-.389 1.08-.527 17.25-7.519 33.089-17.728 48.041-29.492 9.332-7.352 17.473-16.257 23.37-26.55 6.895-12.013 10.467-24.581 8.75-37.787-1.744-13.2892-8.473-22.8607-20.988-27.6326-9.055-3.4402-18.719-3.1628-28.576-1.0543-15.756 3.3847-29.296 11.5136-40.621 23.4433-21.626 22.7776-30.735 49.1066-28.659 78.3206.194 2.802.637 5.576.942 8.156-13.291 6.631-26.416 13.178-39.569 19.67-.415.222-.941.222-1.329 0-2.381-1.304-4.569-2.968-7.061-4.078-10.023-4.522-20.989-5.077-32.286-3.995-2.077.194-4.126.499-6.452.805.526-.694.859-1.138 1.219-1.582 12.682-15.897 66.843-82.537 80.577-99.8767 0-.0555.027-.111.055-.1387.415-.5827.692-1.2207 1.025-1.8589.138-.2496.304-.4993.443-.7768.221-.4994.415-.9987.581-1.4981.249-.7214.415-1.4704.554-2.2195.028-.2497.166-.4717.194-.7491 0-.0832 0-.1942 0-.2774 0-.222 0-.4717 0-.6936 0-.6381.027-1.2762-.028-1.8866-.055-.6103-.222-1.2207-.36-1.8588-.028-.1387-.055-.3052-.083-.4439-.055-.2219-.083-.4439-.138-.6658-2.354-7.2411-10.135-11.2084-17.362-8.8502-.332.1109-34.335 10.9032-77.669 4.4944-7.532-1.1652-14.538 4.1061-15.673 11.6523-1.107 7.5463 4.098 14.5654 11.63 15.7024 11.463 1.693 22.29 2.359 32.258 2.359 9.969 0 18.054-.611 25.586-1.471-11.353 13.955-52.998 64.171-66.899 81.206-2.769 3.412-5.898 6.575-9.054 9.654-4.68 4.55-9.83 8.435-15.949 10.654-11.104 4.051-20.906-.361-24.257-10.875-1.799-5.716-1.799-11.708-.775-17.784 1.218-7.352 19.826-80.7894 21.736-87.6975.056-.1665.167-.6104.194-.7491 0 0 .333-1.5259.416-2.4692.775-7.4908-4.652-13.5666-12.128-13.5666-7.477 0-13.153 5.8262-15.119 13.5666 0 0-1.08 4.9384-1.634 6.8249 0 0-.692-1.4981-.941-1.9975-4.652-9.7935-11.962-16.6461-23.01-18.8379-14.454-2.8576-28.576.111-42.172 7.8514-12.515 7.1301-21.93 17.3953-29.489 29.4639-6.175 9.849-10.661 20.364-15.008 30.962-4.458 10.847-8.805 21.751-13.706 32.432-4.32 9.46-10.135 18.089-17.999 25.33-3.018 2.802-6.313 5.16-10.272 6.325-4.625 1.36-9.36-.444-11.409-4.439-.969-1.886-1.606-4.078-1.91-6.242-1.108-7.269.304-14.649 1.8-21.973 2.547-12.318 6.562-25.274 11.768-36.954 5.122-11.514 10.716-22.889 16.198-34.264.305-.61.526-1.193.748-1.803.637-1.3872 1.052-2.8853 1.218-4.439.775-7.463-4.624-13.5388-12.1-13.5388-1.108 0-8.196 1.193-10.661 1.6646-17.167 3.3847-21.044 4.5777-38.073 3.5789-1.246-.0832-2.464-.2219-3.766-.3329.111-.6104.083-2.8021.111-3.1073.748-7.1856-4.458-12.984-11.602-12.984s-12.987 5.7707-14.316 12.984c0 .111-.526 2.1918-1.356 5.8817-3.129 13.7048-6.757 27.3278-11.63 40.6998-5.621 15.453-13.485 31.267-23.619 44.778-4.625 6.187-11.381 11.874-17.583 16.591-.609.444-1.274.832-2.243 1.442.304-.61.387-.804.471-.971 8.722-15.314 14.232-31.239 16.143-47.802.526-3.995.913-7.99 1.024-12.068.277-10.737-1.191-21.03-5.372-30.463-8.251-18.5601-22.678-28.9917-44.165-29.6298-10.633-.3329-21.625 2.1362-31.3998 7.463-.4984.2775-.9968.4994-1.5506.7768 0-.2219-.0277-.2774 0-.3329 0 0 8.8884-33.3755 13.3464-66.3904.914-7.6017-4.375-14.010463-11.9619-14.3433854-6.6732-.2774356-12.4604 4.5776854-13.3188 11.2083854-5.704 44.1123-18.8843 98.3783-32.48 136.6093-7.2823 20.475-20.878 37.593-40.1223 49.467-.74762.472-1.77214 1.026-2.90741 1.581-6.00866 3.024-8.8607 10.071-6.507077 16.397 2.713587 7.324 11.158987 10.709 18.136787 7.269 11.4081-5.605 21.764-13.068 30.7909-22.833.3322-.361.6922-.722 1.1076-1.166.1938.5.3322.916.4707 1.304 3.3781 9.433 9.1653 17.839 17.2783 23.582 9.9683 7.075 21.7087 9.905 34.4462 10.238.581 0 1.08-.084 1.633-.111l-.083.111c9.996.249 20.048-.833 30.044-3.219 30.375-7.268 56.957-23.97 74.208-51.27 11.519-18.199 19.466-38.341 25.308-58.455.886-3.052 1.689-6.104 2.603-9.322 32.646 2.275 35.748-1.304 35.526-.805-1.578 3.44-3.157 7.463-4.624 10.959-8.224 19.781-15.645 40.644-18.746 61.48-1.44 9.71-1.744 19.309.637 28.548 2.686 10.404 8.694 17.811 19.355 20.669 13.208 3.551 25.862.999 37.713-8.018 7.781-5.937 13.901-13.345 19.328-21.363.526-.776 1.08-1.581 1.772-2.58.554 1.498.747 2.025 1.329 3.468 2.686 6.631 6.479 12.79 11.657 17.673 12.654 11.902 28.244 15.286 46.63 9.821 11.519-3.412 20.905-10.709 29.074-19.698 1.357-1.498 2.658-3.052 4.126-4.744.387 1.554.692 2.885 1.052 4.161 2.243 7.852 6.285 14.288 13.706 18.006 10.384 5.188 21.654 6.27 33.56 2.941 7.449-2.081 14.731-5.105 22.013-7.852 13.291-5.021 26.721-7.712 40.427-7.13 3.102.139 6.092.694 9.083 1.859-.748.444-1.33.777-1.883 1.11-9.083 5.715-18.303 11.236-27.219 17.173-12.35 8.24-23.149 18.2-31.317 30.74-8.529 13.04-13.513 26.884-12.821 41.81.665 14.177 6.701 25.108 18.525 32.154 9.996 5.938 21.265 6.548 33.089 3.135 20.241-5.853 36.356-17.922 48.318-35.733 7.421-11.042 12.184-23.027 15.036-35.595 3.184-14.039 3.793-27.855.803-41.366-.526-2.386-1.218-4.716-1.883-7.297 14.149-8.156 35.664-16.812 35.664-16.812.443.638.748 1.082 1.052 1.526 5.289 7.823 12.572 14.066 21.266 17.978 13.402 6.02 27.967 7.157 43.141 5.271 16.807-2.109 32.452-8.351 46.961-18.311 0 0 8.113-5.66 8.806-12.484.803-7.658-4.735-13.872-12.378-13.872zm-574.976-44.445c-2.963 20.586-10.522 37.482-25.114 51.631-4.791 4.605-10.162 8.184-16.393 10.071-10.217 3.079-18.7731 1.109-25.7233-5.632-5.7317-5.577-8.7222-12.762-9.636-20.891-2.5197-22.916 4.015-44.14 20.1858-63.283 4.0427-4.8 8.8055-8.795 14.2875-11.791 13.375-7.2691 28.991-3.9953 36.329 7.518 3.932 6.187 5.704 13.289 6.092 20.891.221 4.356 0 8.795-.055 11.514zm258.954 43.224c-4.929 6.409-10.799 11.819-17.943 15.676-14.094 7.601-27.856 4.272-34.972-8.518-3.627-6.519-5.122-13.788-5.261-21.473-.028-2.136.056-4.3.139-6.187.11-2.247.304-4.494.72-6.714 3.128-17.478 9.774-32.626 21.902-45.694 5.427-5.826 11.685-10.542 19.161-13.095 12.295-4.1611 23.177-.083 29.351 10.82 3.6 6.409 5.261 13.567 5.317 21.169.11 19.503-5.732 37.62-18.414 54.044zm123.745 122.932c-1.384 1.415-2.879 2.775-4.485 3.94-18.193 13.345-34.696 4.994-34.059-12.124.305-7.741 3.406-14.704 7.892-21.335 6.424-9.516 14.814-17.09 24.118-23.748 9.636-6.909 30.347-18.755 30.652-18.894 1.329 4.245 1.966 8.601 1.855 13.095-.471 22.417-9.193 42.115-25.945 59.066zm102.286-135.749c-.415.194-.803.361-1.523.694-.083-3.274-.388-6.409-.249-9.544.747-18.172 7.033-34.957 19.161-49.994 1.468-1.803 3.129-3.468 4.901-4.966 10.107-8.379 21.404-14.4824 31.539-10.959 5.981 2.081 9.414 7.796 9.054 14.732-.387 7.407-3.738 13.844-8.334 19.864-6.397 8.351-14.371 15.065-22.817 21.196-10.079 7.297-20.684 13.539-31.76 18.977z" fill="#000"/></svg>

<svg width="738" height="347" viewBox="0 0 738 347" fill="none" xmlns="http://www.w3.org/2000/svg">
<path d="M725.545 188.279C721.946 188.279 718.817 190.138 715.826 191.969C715.826 191.969 710.593 195.049 708.35 196.353C695.862 203.538 682.903 207.894 669.031 206.756C661.222 206.118 653.94 204.204 647.737 199.765C646.713 199.016 645.744 198.184 644.664 197.296C645.19 197.046 645.467 196.907 645.744 196.769C662.994 189.25 678.833 179.041 693.785 167.277C703.117 159.925 711.258 151.02 717.155 140.727C724.05 128.714 727.622 116.146 725.905 102.94C724.161 89.6508 717.432 80.0793 704.917 75.3074C695.862 71.8672 686.198 72.1446 676.341 74.2531C660.585 77.6378 647.045 85.7667 635.72 97.6964C614.094 120.474 604.985 146.803 607.061 176.017C607.255 178.819 607.698 181.593 608.003 184.173C594.712 190.804 581.587 197.351 568.434 203.843C568.019 204.065 567.493 204.065 567.105 203.843C564.724 202.539 562.536 200.875 560.044 199.765C550.021 195.243 539.055 194.688 527.758 195.77C525.681 195.964 523.632 196.269 521.306 196.575C521.832 195.881 522.165 195.437 522.525 194.993C535.207 179.096 589.368 112.456 603.102 95.1163C603.102 95.0608 603.129 95.0053 603.157 94.9776C603.572 94.3949 603.849 93.7569 604.182 93.1187C604.32 92.8691 604.486 92.6194 604.625 92.3419C604.846 91.8425 605.04 91.3432 605.206 90.8438C605.455 90.1224 605.621 89.3734 605.76 88.6243C605.788 88.3746 605.926 88.1526 605.954 87.8752C605.954 87.792 605.954 87.681 605.954 87.5978C605.954 87.3758 605.954 87.1261 605.954 86.9042C605.954 86.2661 605.981 85.628 605.926 85.0176C605.871 84.4073 605.704 83.7969 605.566 83.1588C605.538 83.0201 605.511 82.8536 605.483 82.7149C605.428 82.493 605.4 82.271 605.345 82.0491C602.991 74.808 595.21 70.8407 587.983 73.1989C587.651 73.3098 553.648 84.1021 510.314 77.6933C502.782 76.5281 495.776 81.7994 494.641 89.3456C493.534 96.8919 498.739 103.911 506.271 105.048C517.734 106.741 528.561 107.407 538.529 107.407C548.498 107.407 556.583 106.796 564.115 105.936C552.762 119.891 511.117 170.107 497.216 187.142C494.447 190.554 491.318 193.717 488.162 196.796C483.482 201.346 478.332 205.231 472.213 207.45C461.109 211.501 451.307 207.089 447.956 196.575C446.157 190.859 446.157 184.867 447.181 178.791C448.399 171.439 467.007 98.0016 468.917 91.0935C468.973 90.927 469.084 90.4831 469.111 90.3444C469.111 90.3444 469.444 88.8185 469.527 87.8752C470.302 80.3844 464.875 74.3086 457.399 74.3086C449.922 74.3086 444.246 80.1348 442.28 87.8752C442.28 87.8752 441.2 92.8136 440.646 94.7001C440.646 94.7001 439.954 93.202 439.705 92.7026C435.053 82.9091 427.743 76.0565 416.695 73.8647C402.241 71.0071 388.119 73.9757 374.523 81.7161C362.008 88.8462 352.593 99.1114 345.034 111.18C338.859 121.029 334.373 131.544 330.026 142.142C325.568 152.989 321.221 163.893 316.32 174.574C312 184.034 306.185 192.663 298.321 199.904C295.303 202.706 292.008 205.064 288.049 206.229C283.424 207.589 278.689 205.785 276.64 201.79C275.671 199.904 275.034 197.712 274.73 195.548C273.622 188.279 275.034 180.899 276.53 173.575C279.077 161.257 283.092 148.301 288.298 136.621C293.42 125.107 299.014 113.732 304.496 102.357C304.801 101.747 305.022 101.164 305.244 100.554C305.881 99.1668 306.296 97.6687 306.462 96.115C307.237 88.652 301.838 82.5762 294.362 82.5762C293.254 82.5762 286.166 83.7692 283.701 84.2408C266.534 87.6255 262.657 88.8185 245.628 87.8197C244.382 87.7365 243.164 87.5978 241.862 87.4868C241.973 86.8764 241.945 84.6847 241.973 84.3795C242.721 77.1939 237.515 71.3955 230.371 71.3955C223.227 71.3955 217.384 77.1662 216.055 84.3795C216.055 84.4905 215.529 86.5713 214.699 90.2612C211.57 103.966 207.942 117.589 203.069 130.961C197.448 146.414 189.584 162.228 179.45 175.739C174.825 181.926 168.069 187.613 161.867 192.33C161.258 192.774 160.593 193.162 159.624 193.772C159.928 193.162 160.011 192.968 160.095 192.801C168.817 177.487 174.327 161.562 176.238 144.999C176.764 141.004 177.151 137.009 177.262 132.931C177.539 122.194 176.071 111.901 171.89 102.468C163.639 83.9079 149.212 73.4763 127.725 72.8382C117.092 72.5053 106.1 74.9744 96.3252 80.3012C95.8268 80.5787 95.3284 80.8006 94.7746 81.078C94.7746 80.8561 94.7469 80.8006 94.7746 80.7451C94.7746 80.7451 103.663 47.3696 108.121 14.3547C109.035 6.753 103.746 0.344237 96.1591 0.0113146C89.4859 -0.266121 83.6987 4.589 82.8403 11.2197C77.1363 55.332 63.956 109.598 50.3603 147.829C43.078 168.304 29.4823 185.422 10.238 197.296C9.49038 197.768 8.46586 198.322 7.33059 198.877C1.32193 201.901 -1.53011 208.948 0.823513 215.274C3.5371 222.598 11.9825 225.983 18.9603 222.543C30.3684 216.938 40.7243 209.475 49.7512 199.71C50.0834 199.349 50.4434 198.988 50.8588 198.544C51.0526 199.044 51.191 199.46 51.3295 199.848C54.7076 209.281 60.4948 217.687 68.6078 223.43C78.5761 230.505 90.3165 233.335 103.054 233.668C103.635 233.668 104.134 233.584 104.687 233.557L104.604 233.668C114.6 233.917 124.652 232.835 134.648 230.449C165.023 223.181 191.605 206.479 208.856 179.179C220.375 160.98 228.322 140.838 234.164 120.724C235.05 117.672 235.853 114.62 236.767 111.402C269.413 113.677 272.515 110.098 272.293 110.597C270.715 114.037 269.136 118.06 267.669 121.556C259.445 141.337 252.024 162.2 248.923 183.036C247.483 192.746 247.179 202.345 249.56 211.584C252.246 221.988 258.254 229.395 268.915 232.253C282.123 235.804 294.777 233.252 306.628 224.235C314.409 218.298 320.529 210.89 325.956 202.872C326.482 202.096 327.036 201.291 327.728 200.292C328.282 201.79 328.475 202.317 329.057 203.76C331.743 210.391 335.536 216.55 340.714 221.433C353.368 233.335 368.958 236.719 387.344 231.254C398.863 227.842 408.249 220.545 416.418 211.556C417.775 210.058 419.076 208.504 420.544 206.812C420.931 208.366 421.236 209.697 421.596 210.973C423.839 218.825 427.881 225.261 435.302 228.979C445.686 234.167 456.956 235.249 468.862 231.92C476.311 229.839 483.593 226.815 490.875 224.068C504.166 219.047 517.596 216.356 531.302 216.938C534.404 217.077 537.394 217.632 540.385 218.797C539.637 219.241 539.055 219.574 538.502 219.907C529.419 225.622 520.199 231.143 511.283 237.08C498.933 245.32 488.134 255.28 479.966 267.82C471.437 280.86 466.453 294.704 467.145 309.63C467.81 323.807 473.846 334.738 485.67 341.784C495.666 347.722 506.935 348.332 518.759 344.919C539 339.066 555.115 326.997 567.077 309.186C574.498 298.144 579.261 286.159 582.113 273.591C585.297 259.552 585.906 245.736 582.916 232.225C582.39 229.839 581.698 227.509 581.033 224.928C595.182 216.772 616.697 208.116 616.697 208.116C617.14 208.754 617.445 209.198 617.749 209.642C623.038 217.465 630.321 223.708 639.015 227.62C652.417 233.64 666.982 234.777 682.156 232.891C698.963 230.782 714.608 224.54 729.117 214.58C729.117 214.58 737.23 208.92 737.923 202.096C738.726 194.438 733.188 188.224 725.545 188.224V188.279ZM150.569 143.834C147.606 164.42 140.047 181.316 125.455 195.465C120.664 200.07 115.293 203.649 109.062 205.536C98.845 208.615 90.2889 206.645 83.3387 199.904C77.607 194.327 74.6165 187.142 73.7027 179.013C71.183 156.097 77.7177 134.873 93.8885 115.73C97.9312 110.93 102.694 106.935 108.176 103.939C121.551 96.6699 137.167 99.9437 144.505 111.457C148.437 117.644 150.209 124.746 150.597 132.348C150.818 136.704 150.597 141.143 150.542 143.862L150.569 143.834ZM409.523 187.058C404.594 193.467 398.724 198.877 391.58 202.734C377.486 210.335 363.724 207.006 356.608 194.216C352.981 187.697 351.486 180.428 351.347 172.743C351.319 170.607 351.403 168.443 351.486 166.556C351.596 164.309 351.79 162.062 352.206 159.842C355.334 142.364 361.98 127.216 374.108 114.148C379.535 108.322 385.793 103.606 393.269 101.053C405.564 96.8919 416.446 100.97 422.62 111.873C426.22 118.282 427.881 125.44 427.937 133.042C428.047 152.545 422.205 170.662 409.523 187.086V187.058ZM533.268 309.99C531.884 311.405 530.389 312.765 528.783 313.93C510.59 327.275 494.087 318.924 494.724 301.806C495.029 294.065 498.13 287.102 502.616 280.471C509.04 270.955 517.43 263.381 526.734 256.723C536.37 249.814 557.081 237.968 557.386 237.829C558.715 242.074 559.352 246.43 559.241 250.924C558.77 273.341 550.048 293.039 533.296 309.99H533.268ZM635.554 174.241C635.139 174.435 634.751 174.602 634.031 174.935C633.948 171.661 633.643 168.526 633.782 165.391C634.529 147.219 640.815 130.434 652.943 115.397C654.411 113.594 656.072 111.929 657.844 110.431C667.951 102.052 679.248 95.9486 689.383 99.472C695.364 101.553 698.797 107.268 698.437 114.204C698.05 121.611 694.699 128.048 690.103 134.068C683.706 142.419 675.732 149.133 667.286 155.264C657.207 162.561 646.602 168.803 635.526 174.241H635.554Z" fill="black"/>
</svg>
